material/.icons/material/hololens.svg

<svg xmlns="http://www.w3.org/2000/svg" viewBox="0 0 24 24"><path d="M12 8s10 0 10 3c0 0 .09 3.36-.25 3.25C21 11 12 11 12 11s-9 0-9.75 3.25C1.91 14.36 2 11 2 11c0-3 10-3 10-3m0 4c8 0 8.75 2.25 8.75 2.25-1 3-1.75 3.75-5.75 3.75-3 0-2-1.5-3-1.5S12 18 9 18c-4 0-4.75-.75-5.75-3.75C3.25 14.25 4 12 12 12z"/></svg>

<?xml version="1.0" encoding="UTF-8"?><!DOCTYPE svg PUBLIC "-//W3C//DTD SVG 1.1//EN" "http://www.w3.org/Graphics/SVG/1.1/DTD/svg11.dtd"><svg xmlns="http://www.w3.org/2000/svg" xmlns:xlink="http://www.w3.org/1999/xlink" version="1.1" id="mdi-hololens" width="24" height="24" viewBox="0 0 24 24"><path d="M12,8C12,8 22,8 22,11C22,11 22.09,14.36 21.75,14.25C21,11 12,11 12,11C12,11 3,11 2.25,14.25C1.91,14.36 2,11 2,11C2,8 12,8 12,8M12,12C20,12 20.75,14.25 20.75,14.25C19.75,17.25 19,18 15,18C12,18 13,16.5 12,16.5C11,16.5 12,18 9,18C5,18 4.25,17.25 3.25,14.25C3.25,14.25 4,12 12,12Z" /></svg>
